X: 9
T: Liao bujian meizi shan dangzhule
%%abc-version 2.0
%%abcx-abcm2ps-target-version 5.9.1 (29 Sep 2008)
%%abc-creator hum2abc beta
%%abcx-conversion-date 2013/10/02 07:52:29
%%abc-edited-by Helmut Schaffrath
%%humdrum-veritas 3094711193
%%humdrum-veritas-data 3111030171
%%continueall 1
%%barnumbers 0
L: 1/8
M: 2/4
K: A
b e'b2 [I:setbarnb 1]| 
b a f B | 
B b b c'/ a/ | 
f4 | 
b e'b2 | 
fe2B | 
B a f e | 
B4 |]  



